X:1
T:Title
%%score { 1 | ( 2 3 ) }
L:1/8
M:6/8
K:Db
V:1 treble nm="Grand Piano"
V:2 bass 
V:3 bass 
V:1
 z3 z2[Q:1/4=100] [FA] | [FA]2 F D2 E | F2 [GB] [FA]2 [FA] | [Fd][Ge][Fd] [FA]2 [DF] | %4
[M:5/8] [CE]-[CE]- [CE]3 |[M:1/8] [CE] |[M:3/4] [CE]2 [DF] [EG]2 [CE] | [DF]2 [EG] [FA]2 [Fd] | %8
 cd cB cB |[M:5/8] [A,CA]-[A,CA]- [A,CA]3 |[M:1/8] [CGA] | %11
[M:3/4] [DFA]2 [A,DF][K:bass] [F,D]2 [G,DE] | [DF]2 [GB] [FA]2 [FA] | [Fd][Ge] [Fd] [FA]2 [DF] | %14
[M:5/8] [CE]-[CE]- [CE]3 |[M:1/8] [CE] |[M:3/4] [DF]2 [FA] [Fd]2 [FA] | [Ac]3 B2 B | AF A [CG]2 C | %19
[M:5/8] D-D- D3 |[M:1/8] A |[M:3/4] d2 dd AF | [CE]3 [CE]2 [DF] | [CEG]2 [CEG] [CEG]2 [A,CA] | %24
[M:5/8] F-F- F3 |[M:1/8] A |[M:3/4] d2 dd AF | G3 B2 B | AF A [CG]2 C | D6 |] %30
V:2
 z3 z2 [D,A,] | [D,A,]2 [D,A,D] [D,F,]2 [D,G,D] | [D,A,D]2 [D,D]- [D,D]2 [D,D] | %3
 [D,A,]2 [D,A,] [D,D]2 [D,A,] |[M:5/8] [A,,A,]-[A,,A,]- [A,,A,]3 |[M:1/8] [A,,A,] | %6
[M:3/4] [A,,A,]2 [A,,A,] [A,,A,]2 [A,,A,] | [D,A,]3 [D,D]2 [D,A,] | %8
 [E,E]-[E,B,E] [E,A,E][E,E]- [E,A,E][E,=G,D] |[M:5/8] A,,-A,,- A,,3 |[M:1/8] A,, | %11
[M:3/4] D,2 D, D,2 D, | [D,A,]3 [D,D]2 [D,D] | [D,A,]2 [D,A,] [D,D]2 [D,A,] | %14
[M:5/8] [A,,A,]-[A,,A,]- [A,,A,]3 |[M:1/8] [A,,A,] |[M:3/4] [D,A,]2 [D,D] [D,A,]2 [D,D] | %17
 [G,D]3[K:treble] [G,DG]2 [G,DG] | [A,DF][A,D] [A,DF][K:bass] [A,,A,]2 [A,,G,A,] | %19
[M:5/8] [D,F,A,]-[D,F,A,]- [D,F,A,]3 |[M:1/8] D |[M:3/4] [D,F,D]2 [D,F,D] [D,F,D]2 [D,A,D] | %22
 [A,,A,]3 [A,,A,]2 [A,,A,] | A,,2 A,, A,,2 A,, |[M:5/8] [D,A,D]-[D,A,D]- [D,A,D]3 | %25
[M:1/8] [D,F,D] |[M:3/4] [D,F,D]2 [D,F,D] [D,F,D]2 [D,A,D] | [G,B,C]3 [G,D]2[K:treble] [G,DG] | %28
 [A,CF][A,D] [A,DF][K:bass] [A,,A,]2 [A,,G,A,] | [D,F,A,]6 |] %30
V:3
 x6 | x6 | x6 | x6 |[M:5/8] x5 |[M:1/8] x |[M:3/4] x6 | x6 | .A,2 z =G, z2 |[M:5/8] x5 |[M:1/8] x | %11
[M:3/4] x6 | x6 | x6 |[M:5/8] x5 |[M:1/8] x |[M:3/4] x6 | x3[K:treble] x3 | x3[K:bass] x3 | %19
[M:5/8] x5 |[M:1/8] x |[M:3/4] x6 | x6 | x6 |[M:5/8] x5 |[M:1/8] x |[M:3/4] x6 | x5[K:treble] x | %28
 x3[K:bass] x3 | x6 |] %30

